images/3232683.svg

<?xml version="1.0" encoding="UTF-8"?>
<svg xmlns="http://www.w3.org/2000/svg" xmlns:xlink="http://www.w3.org/1999/xlink" width="300pt" height="300pt" viewBox="0 0 300 300" version="1.1">
<defs>
<g>
<symbol overflow="visible" id="glyph0-0">
<path style="stroke:none;" d="M 0.453125 1.59375 L 0.453125 -6.34375 L 4.953125 -6.34375 L 4.953125 1.59375 Z M 0.953125 1.09375 L 4.453125 1.09375 L 4.453125 -5.84375 L 0.953125 -5.84375 Z M 0.953125 1.09375 "/>
</symbol>
<symbol overflow="visible" id="glyph0-1">
<path style="stroke:none;" d="M 0.890625 -6.5625 L 2.078125 -6.5625 L 4.984375 -1.078125 L 4.984375 -6.5625 L 5.84375 -6.5625 L 5.84375 0 L 4.65625 0 L 1.75 -5.484375 L 1.75 0 L 0.890625 0 Z M 0.890625 -6.5625 "/>
</symbol>
<symbol overflow="visible" id="glyph0-2">
<path style="stroke:none;" d="M 3.546875 -5.953125 C 2.898438 -5.953125 2.382812 -5.710938 2 -5.234375 C 1.625 -4.753906 1.4375 -4.101562 1.4375 -3.28125 C 1.4375 -2.445312 1.625 -1.789062 2 -1.3125 C 2.382812 -0.832031 2.898438 -0.59375 3.546875 -0.59375 C 4.191406 -0.59375 4.703125 -0.832031 5.078125 -1.3125 C 5.453125 -1.789062 5.640625 -2.445312 5.640625 -3.28125 C 5.640625 -4.101562 5.453125 -4.753906 5.078125 -5.234375 C 4.703125 -5.710938 4.191406 -5.953125 3.546875 -5.953125 Z M 3.546875 -6.6875 C 4.460938 -6.6875 5.195312 -6.375 5.75 -5.75 C 6.300781 -5.132812 6.578125 -4.3125 6.578125 -3.28125 C 6.578125 -2.238281 6.300781 -1.410156 5.75 -0.796875 C 5.195312 -0.179688 4.460938 0.125 3.546875 0.125 C 2.617188 0.125 1.878906 -0.179688 1.328125 -0.796875 C 0.773438 -1.410156 0.5 -2.238281 0.5 -3.28125 C 0.5 -4.3125 0.773438 -5.132812 1.328125 -5.75 C 1.878906 -6.375 2.617188 -6.6875 3.546875 -6.6875 Z M 3.546875 -6.6875 "/>
</symbol>
<symbol overflow="visible" id="glyph0-3">
<path style="stroke:none;" d="M 0.890625 -6.5625 L 1.765625 -6.5625 L 1.765625 -3.875 L 5 -3.875 L 5 -6.5625 L 5.890625 -6.5625 L 5.890625 0 L 5 0 L 5 -3.125 L 1.765625 -3.125 L 1.765625 0 L 0.890625 0 Z M 0.890625 -6.5625 "/>
</symbol>
</g>
</defs>
<g id="surface47021">
<rect x="0" y="0" width="300" height="300" style="fill:rgb(100%,100%,100%);fill-opacity:1;stroke:none;"/>
<path style="fill:none;stroke-width:1.2;stroke-linecap:butt;stroke-linejoin:miter;stroke:rgb(0%,0%,0%);stroke-opacity:1;stroke-miterlimit:10;" d="M 152.042969 219.933594 L 130.597656 211.238281 "/>
<path style="fill:none;stroke-width:1.2;stroke-linecap:butt;stroke-linejoin:miter;stroke:rgb(0%,0%,0%);stroke-opacity:1;stroke-miterlimit:10;" d="M 170.292969 205.710938 L 152.042969 219.933594 "/>
<path style="fill:none;stroke-width:1.2;stroke-linecap:butt;stroke-linejoin:miter;stroke:rgb(0%,0%,0%);stroke-opacity:1;stroke-miterlimit:10;" d="M 130.597656 211.238281 L 127.40625 188.320312 "/>
<path style="fill:none;stroke-width:1.2;stroke-linecap:butt;stroke-linejoin:miter;stroke:rgb(0%,0%,0%);stroke-opacity:1;stroke-miterlimit:10;" d="M 127.40625 188.320312 L 124.214844 165.402344 "/>
<path style="fill:none;stroke-width:1.2;stroke-linecap:butt;stroke-linejoin:miter;stroke:rgb(0%,0%,0%);stroke-opacity:1;stroke-miterlimit:10;" d="M 127.40625 188.320312 L 145.660156 174.097656 "/>
<path style="fill:none;stroke-width:1.2;stroke-linecap:butt;stroke-linejoin:miter;stroke:rgb(0%,0%,0%);stroke-opacity:1;stroke-miterlimit:10;" d="M 109.152344 202.542969 L 127.40625 188.320312 "/>
<path style="fill:none;stroke-width:1.2;stroke-linecap:butt;stroke-linejoin:miter;stroke:rgb(0%,0%,0%);stroke-opacity:1;stroke-miterlimit:10;" d="M 124.214844 165.402344 L 102.773438 156.707031 "/>
<path style="fill:none;stroke-width:1.2;stroke-linecap:butt;stroke-linejoin:miter;stroke:rgb(0%,0%,0%);stroke-opacity:1;stroke-miterlimit:10;" d="M 102.773438 156.707031 L 93.644531 163.816406 "/>
<path style="fill:none;stroke-width:1.2;stroke-linecap:butt;stroke-linejoin:miter;stroke:rgb(0%,0%,100%);stroke-opacity:1;stroke-miterlimit:10;" d="M 93.644531 163.816406 L 84.519531 170.929688 "/>
<path style="fill:none;stroke-width:1.2;stroke-linecap:butt;stroke-linejoin:miter;stroke:rgb(0%,0%,100%);stroke-opacity:1;stroke-miterlimit:10;" d="M 84.519531 170.929688 L 86.113281 182.386719 "/>
<path style="fill:none;stroke-width:1.2;stroke-linecap:butt;stroke-linejoin:miter;stroke:rgb(0%,0%,0%);stroke-opacity:1;stroke-miterlimit:10;" d="M 86.113281 182.386719 L 87.710938 193.847656 "/>
<path style="fill:none;stroke-width:1.2;stroke-linecap:butt;stroke-linejoin:miter;stroke:rgb(0%,0%,100%);stroke-opacity:1;stroke-miterlimit:10;" d="M 84.519531 170.929688 L 73.796875 166.578125 "/>
<path style="fill:none;stroke-width:1.2;stroke-linecap:butt;stroke-linejoin:miter;stroke:rgb(0%,0%,0%);stroke-opacity:1;stroke-miterlimit:10;" d="M 73.796875 166.578125 L 63.074219 162.230469 "/>
<path style=" stroke:none;fill-rule:nonzero;fill:rgb(100%,100%,100%);fill-opacity:1;" d="M 81.519531 165.429688 L 88.519531 165.429688 L 88.519531 176.429688 L 81.519531 176.429688 Z M 81.519531 165.429688 "/>
<g style="fill:rgb(0%,0%,100%);fill-opacity:1;">
  <use xlink:href="#glyph0-1" x="81.519531" y="174.092773"/>
</g>
<path style="fill:none;stroke-width:1.2;stroke-linecap:butt;stroke-linejoin:miter;stroke:rgb(0%,0%,0%);stroke-opacity:1;stroke-miterlimit:10;" d="M 87.710938 193.847656 L 109.152344 202.542969 "/>
<path style="fill:none;stroke-width:1.2;stroke-linecap:butt;stroke-linejoin:miter;stroke:rgb(0%,0%,0%);stroke-opacity:1;stroke-miterlimit:10;" d="M 61.402344 160.085938 L 52.277344 167.195312 "/>
<path style="fill:none;stroke-width:1.2;stroke-linecap:butt;stroke-linejoin:miter;stroke:rgb(100%,0%,0%);stroke-opacity:1;stroke-miterlimit:10;" d="M 52.277344 167.195312 L 43.148438 174.308594 "/>
<path style="fill:none;stroke-width:1.2;stroke-linecap:butt;stroke-linejoin:miter;stroke:rgb(0%,0%,0%);stroke-opacity:1;stroke-miterlimit:10;" d="M 64.75 164.378906 L 55.621094 171.492188 "/>
<path style="fill:none;stroke-width:1.2;stroke-linecap:butt;stroke-linejoin:miter;stroke:rgb(100%,0%,0%);stroke-opacity:1;stroke-miterlimit:10;" d="M 55.621094 171.492188 L 46.496094 178.601562 "/>
<path style="fill:none;stroke-width:1.2;stroke-linecap:butt;stroke-linejoin:miter;stroke:rgb(0%,0%,0%);stroke-opacity:1;stroke-miterlimit:10;" d="M 63.074219 162.230469 L 59.882812 139.3125 "/>
<path style=" stroke:none;fill-rule:nonzero;fill:rgb(100%,100%,100%);fill-opacity:1;" d="M 36.824219 170.953125 L 44.824219 170.953125 L 44.824219 181.953125 L 36.824219 181.953125 Z M 36.824219 170.953125 "/>
<g style="fill:rgb(100%,0%,0%);fill-opacity:1;">
  <use xlink:href="#glyph0-2" x="36.824219" y="179.616211"/>
</g>
<path style="fill:none;stroke-width:1.2;stroke-linecap:butt;stroke-linejoin:miter;stroke:rgb(0%,0%,0%);stroke-opacity:1;stroke-miterlimit:10;" d="M 59.882812 139.3125 L 78.136719 125.089844 "/>
<path style="fill:none;stroke-width:1.2;stroke-linecap:butt;stroke-linejoin:miter;stroke:rgb(0%,0%,0%);stroke-opacity:1;stroke-miterlimit:10;" d="M 58.363281 133.597656 L 72.964844 122.21875 "/>
<path style="fill:none;stroke-width:1.2;stroke-linecap:butt;stroke-linejoin:miter;stroke:rgb(0%,0%,0%);stroke-opacity:1;stroke-miterlimit:10;" d="M 38.441406 130.617188 L 59.882812 139.3125 "/>
<path style="fill:none;stroke-width:1.2;stroke-linecap:butt;stroke-linejoin:miter;stroke:rgb(0%,0%,0%);stroke-opacity:1;stroke-miterlimit:10;" d="M 78.136719 125.089844 L 74.945312 102.171875 "/>
<path style="fill:none;stroke-width:1.2;stroke-linecap:butt;stroke-linejoin:miter;stroke:rgb(0%,0%,0%);stroke-opacity:1;stroke-miterlimit:10;" d="M 74.945312 102.171875 L 64.226562 97.824219 "/>
<path style="fill:none;stroke-width:1.2;stroke-linecap:butt;stroke-linejoin:miter;stroke:rgb(0%,0%,100%);stroke-opacity:1;stroke-miterlimit:10;" d="M 64.226562 97.824219 L 53.503906 93.476562 "/>
<path style="fill:none;stroke-width:1.2;stroke-linecap:butt;stroke-linejoin:miter;stroke:rgb(0%,0%,0%);stroke-opacity:1;stroke-miterlimit:10;" d="M 70.757812 106.347656 L 62.179688 102.867188 "/>
<path style="fill:none;stroke-width:1.2;stroke-linecap:butt;stroke-linejoin:miter;stroke:rgb(0%,0%,100%);stroke-opacity:1;stroke-miterlimit:10;" d="M 62.179688 102.867188 L 53.601562 99.390625 "/>
<path style="fill:none;stroke-width:1.2;stroke-linecap:butt;stroke-linejoin:miter;stroke:rgb(0%,0%,100%);stroke-opacity:1;stroke-miterlimit:10;" d="M 53.503906 93.476562 L 44.375 100.585938 "/>
<path style="fill:none;stroke-width:1.2;stroke-linecap:butt;stroke-linejoin:miter;stroke:rgb(0%,0%,0%);stroke-opacity:1;stroke-miterlimit:10;" d="M 44.375 100.585938 L 35.25 107.699219 "/>
<path style=" stroke:none;fill-rule:nonzero;fill:rgb(100%,100%,100%);fill-opacity:1;" d="M 50.503906 87.976562 L 57.503906 87.976562 L 57.503906 98.976562 L 50.503906 98.976562 Z M 50.503906 87.976562 "/>
<g style="fill:rgb(0%,0%,100%);fill-opacity:1;">
  <use xlink:href="#glyph0-1" x="50.503906" y="96.639648"/>
</g>
<path style="fill:none;stroke-width:1.2;stroke-linecap:butt;stroke-linejoin:miter;stroke:rgb(0%,0%,0%);stroke-opacity:1;stroke-miterlimit:10;" d="M 35.25 107.699219 L 38.441406 130.617188 "/>
<path style="fill:none;stroke-width:1.2;stroke-linecap:butt;stroke-linejoin:miter;stroke:rgb(0%,0%,0%);stroke-opacity:1;stroke-miterlimit:10;" d="M 40.960938 109.238281 L 43.515625 127.574219 "/>
<path style="fill:none;stroke-width:1.2;stroke-linecap:butt;stroke-linejoin:miter;stroke:rgb(0%,0%,0%);stroke-opacity:1;stroke-miterlimit:10;" d="M 145.660156 174.097656 L 156.382812 178.445312 "/>
<path style="fill:none;stroke-width:1.2;stroke-linecap:butt;stroke-linejoin:miter;stroke:rgb(0%,0%,100%);stroke-opacity:1;stroke-miterlimit:10;" d="M 156.382812 178.445312 L 167.101562 182.792969 "/>
<path style="fill:none;stroke-width:1.2;stroke-linecap:butt;stroke-linejoin:miter;stroke:rgb(0%,0%,100%);stroke-opacity:1;stroke-miterlimit:10;" d="M 167.101562 182.792969 L 168.699219 194.253906 "/>
<path style="fill:none;stroke-width:1.2;stroke-linecap:butt;stroke-linejoin:miter;stroke:rgb(0%,0%,0%);stroke-opacity:1;stroke-miterlimit:10;" d="M 168.699219 194.253906 L 170.292969 205.710938 "/>
<path style="fill:none;stroke-width:1.2;stroke-linecap:butt;stroke-linejoin:miter;stroke:rgb(0%,0%,100%);stroke-opacity:1;stroke-miterlimit:10;" d="M 167.101562 182.792969 L 176.230469 175.683594 "/>
<path style="fill:none;stroke-width:1.2;stroke-linecap:butt;stroke-linejoin:miter;stroke:rgb(0%,0%,0%);stroke-opacity:1;stroke-miterlimit:10;" d="M 176.230469 175.683594 L 185.355469 168.570312 "/>
<path style=" stroke:none;fill-rule:nonzero;fill:rgb(100%,100%,100%);fill-opacity:1;" d="M 164.101562 177.292969 L 171.101562 177.292969 L 171.101562 188.292969 L 164.101562 188.292969 Z M 164.101562 177.292969 "/>
<g style="fill:rgb(0%,0%,100%);fill-opacity:1;">
  <use xlink:href="#glyph0-1" x="164.101562" y="185.956055"/>
</g>
<path style="fill:none;stroke-width:1.2;stroke-linecap:butt;stroke-linejoin:miter;stroke:rgb(0%,0%,0%);stroke-opacity:1;stroke-miterlimit:10;" d="M 188.054688 168.195312 L 186.457031 156.734375 "/>
<path style="fill:none;stroke-width:1.2;stroke-linecap:butt;stroke-linejoin:miter;stroke:rgb(100%,0%,0%);stroke-opacity:1;stroke-miterlimit:10;" d="M 186.457031 156.734375 L 184.863281 145.277344 "/>
<path style="fill:none;stroke-width:1.2;stroke-linecap:butt;stroke-linejoin:miter;stroke:rgb(0%,0%,0%);stroke-opacity:1;stroke-miterlimit:10;" d="M 182.660156 168.945312 L 181.066406 157.488281 "/>
<path style="fill:none;stroke-width:1.2;stroke-linecap:butt;stroke-linejoin:miter;stroke:rgb(100%,0%,0%);stroke-opacity:1;stroke-miterlimit:10;" d="M 181.066406 157.488281 L 179.46875 146.027344 "/>
<path style="fill:none;stroke-width:1.2;stroke-linecap:butt;stroke-linejoin:miter;stroke:rgb(0%,0%,0%);stroke-opacity:1;stroke-miterlimit:10;" d="M 185.355469 168.570312 L 196.078125 172.917969 "/>
<path style="fill:none;stroke-width:1.2;stroke-linecap:butt;stroke-linejoin:miter;stroke:rgb(0%,0%,100%);stroke-opacity:1;stroke-miterlimit:10;" d="M 196.078125 172.917969 L 206.800781 177.265625 "/>
<path style=" stroke:none;fill-rule:nonzero;fill:rgb(100%,100%,100%);fill-opacity:1;" d="M 178.164062 140.152344 L 186.164062 140.152344 L 186.164062 151.152344 L 178.164062 151.152344 Z M 178.164062 140.152344 "/>
<g style="fill:rgb(100%,0%,0%);fill-opacity:1;">
  <use xlink:href="#glyph0-2" x="178.164062" y="148.81543"/>
</g>
<path style="fill:none;stroke-width:1.2;stroke-linecap:butt;stroke-linejoin:miter;stroke:rgb(0%,0%,100%);stroke-opacity:1;stroke-miterlimit:10;" d="M 206.800781 177.265625 L 215.925781 170.15625 "/>
<path style="fill:none;stroke-width:1.2;stroke-linecap:butt;stroke-linejoin:miter;stroke:rgb(0%,0%,0%);stroke-opacity:1;stroke-miterlimit:10;" d="M 215.925781 170.15625 L 225.054688 163.042969 "/>
<path style=" stroke:none;fill-rule:nonzero;fill:rgb(100%,100%,100%);fill-opacity:1;" d="M 199.800781 171.765625 L 213.800781 171.765625 L 213.800781 182.765625 L 199.800781 182.765625 Z M 199.800781 171.765625 "/>
<g style="fill:rgb(0%,0%,100%);fill-opacity:1;">
  <use xlink:href="#glyph0-1" x="199.800781" y="180.428711"/>
  <use xlink:href="#glyph0-3" x="206.77832" y="180.428711"/>
</g>
<path style="fill:none;stroke-width:1.2;stroke-linecap:butt;stroke-linejoin:miter;stroke:rgb(0%,0%,0%);stroke-opacity:1;stroke-miterlimit:10;" d="M 225.054688 163.042969 L 246.496094 171.742188 "/>
<path style="fill:none;stroke-width:1.2;stroke-linecap:butt;stroke-linejoin:miter;stroke:rgb(0%,0%,0%);stroke-opacity:1;stroke-miterlimit:10;" d="M 229.242188 158.867188 L 246.398438 165.824219 "/>
<path style="fill:none;stroke-width:1.2;stroke-linecap:butt;stroke-linejoin:miter;stroke:rgb(0%,0%,0%);stroke-opacity:1;stroke-miterlimit:10;" d="M 221.863281 140.125 L 225.054688 163.042969 "/>
<path style="fill:none;stroke-width:1.2;stroke-linecap:butt;stroke-linejoin:miter;stroke:rgb(0%,0%,0%);stroke-opacity:1;stroke-miterlimit:10;" d="M 246.496094 171.742188 L 264.75 157.519531 "/>
<path style="fill:none;stroke-width:1.2;stroke-linecap:butt;stroke-linejoin:miter;stroke:rgb(0%,0%,0%);stroke-opacity:1;stroke-miterlimit:10;" d="M 264.75 157.519531 L 261.558594 134.597656 "/>
<path style="fill:none;stroke-width:1.2;stroke-linecap:butt;stroke-linejoin:miter;stroke:rgb(0%,0%,0%);stroke-opacity:1;stroke-miterlimit:10;" d="M 259.039062 155.976562 L 256.484375 137.640625 "/>
<path style="fill:none;stroke-width:1.2;stroke-linecap:butt;stroke-linejoin:miter;stroke:rgb(0%,0%,0%);stroke-opacity:1;stroke-miterlimit:10;" d="M 261.558594 134.597656 L 240.117188 125.902344 "/>
<path style="fill:none;stroke-width:1.2;stroke-linecap:butt;stroke-linejoin:miter;stroke:rgb(0%,0%,0%);stroke-opacity:1;stroke-miterlimit:10;" d="M 240.117188 125.902344 L 221.863281 140.125 "/>
<path style="fill:none;stroke-width:1.2;stroke-linecap:butt;stroke-linejoin:miter;stroke:rgb(0%,0%,0%);stroke-opacity:1;stroke-miterlimit:10;" d="M 241.636719 131.621094 L 227.035156 142.996094 "/>
<path style="fill:none;stroke-width:1.2;stroke-linecap:butt;stroke-linejoin:miter;stroke:rgb(0%,0%,0%);stroke-opacity:1;stroke-miterlimit:10;" d="M 240.117188 125.902344 L 236.925781 102.984375 "/>
<path style="fill:none;stroke-width:1.2;stroke-linecap:butt;stroke-linejoin:miter;stroke:rgb(0%,0%,0%);stroke-opacity:1;stroke-miterlimit:10;" d="M 236.925781 102.984375 L 235.328125 91.523438 "/>
<path style="fill:none;stroke-width:1.2;stroke-linecap:butt;stroke-linejoin:miter;stroke:rgb(0%,0%,100%);stroke-opacity:1;stroke-miterlimit:10;" d="M 235.328125 91.523438 L 233.734375 80.066406 "/>
<path style="fill:none;stroke-width:1.2;stroke-linecap:butt;stroke-linejoin:miter;stroke:rgb(0%,0%,0%);stroke-opacity:1;stroke-miterlimit:10;" d="M 242 99.941406 L 240.722656 90.773438 "/>
<path style="fill:none;stroke-width:1.2;stroke-linecap:butt;stroke-linejoin:miter;stroke:rgb(0%,0%,100%);stroke-opacity:1;stroke-miterlimit:10;" d="M 240.722656 90.773438 L 239.445312 81.605469 "/>
<path style="fill:none;stroke-width:1.2;stroke-linecap:butt;stroke-linejoin:miter;stroke:rgb(0%,0%,0%);stroke-opacity:1;stroke-miterlimit:10;" d="M 231.210938 101.441406 L 229.9375 92.273438 "/>
<path style="fill:none;stroke-width:1.2;stroke-linecap:butt;stroke-linejoin:miter;stroke:rgb(0%,0%,100%);stroke-opacity:1;stroke-miterlimit:10;" d="M 229.9375 92.273438 L 228.660156 83.105469 "/>
<path style=" stroke:none;fill-rule:nonzero;fill:rgb(100%,100%,100%);fill-opacity:1;" d="M 230.734375 74.566406 L 237.734375 74.566406 L 237.734375 85.566406 L 230.734375 85.566406 Z M 230.734375 74.566406 "/>
<g style="fill:rgb(0%,0%,100%);fill-opacity:1;">
  <use xlink:href="#glyph0-1" x="230.734375" y="83.229492"/>
</g>
</g>
</svg>

<svg xmlns="http://www.w3.org/2000/svg" xmlns:xlink="http://www.w3.org/1999/xlink" width="300pt" height="300pt" viewBox="0 0 300 300"><defs><symbol overflow="visible"><path d="M.453 1.594v-7.938h4.5v7.938zm.5-.5h3.5v-6.938h-3.5zm0 0"/></symbol><symbol overflow="visible" id="a"><path d="M.89-6.563H2.08l2.906 5.485v-5.484h.86V0H4.656L1.75-5.484V0H.89zm0 0"/></symbol><symbol overflow="visible" id="b"><path d="M3.547-5.953c-.65 0-1.164.242-1.547.72-.375.48-.563 1.13-.563 1.952 0 .835.188 1.49.563 1.967.383.48.898.72 1.547.72.644 0 1.156-.24 1.53-.72.376-.476.564-1.132.564-1.968 0-.822-.187-1.474-.562-1.954-.375-.477-.887-.72-1.53-.72zm0-.734c.914 0 1.648.312 2.203.937.55.617.828 1.438.828 2.47 0 1.042-.277 1.87-.828 2.483-.555.617-1.29.922-2.203.922-.93 0-1.668-.305-2.22-.922C.774-1.41.5-2.237.5-3.28c0-1.033.273-1.853.828-2.47.55-.625 1.29-.938 2.22-.938zm0 0"/></symbol><symbol overflow="visible" id="c"><path d="M.89-6.563h.876v2.688H5v-2.688h.89V0H5v-3.125H1.766V0H.89zm0 0"/></symbol></defs><g><path fill="#fff" d="M0 0h300v300H0z"/><path d="M152.043 219.934l-21.445-8.696M170.293 205.71l-18.25 14.224M130.598 211.238l-3.192-22.918M127.406 188.32l-3.19-22.918M127.406 188.32l18.254-14.222M109.152 202.543l18.254-14.223M124.215 165.402l-21.442-8.695M102.773 156.707l-9.128 7.11" stroke-width="1.2" stroke="#000" stroke-miterlimit="10" fill="none"/><path d="M93.645 163.816l-9.125 7.114M84.52 170.93l1.593 11.457" stroke-width="1.2" stroke="#00f" stroke-miterlimit="10" fill="none"/><path d="M86.113 182.387l1.598 11.46" stroke-width="1.2" stroke="#000" stroke-miterlimit="10" fill="none"/><path d="M84.52 170.93l-10.723-4.352" stroke-width="1.2" stroke="#00f" stroke-miterlimit="10" fill="none"/><path d="M73.797 166.578l-10.723-4.348" stroke-width="1.2" stroke="#000" stroke-miterlimit="10" fill="none"/><path d="M81.52 165.43h7v11h-7zm0 0" fill="#fff"/><use xlink:href="#a" x="81.52" y="174.093" fill="#00f"/><path d="M87.71 193.848l21.442 8.695M61.402 160.086l-9.125 7.11" stroke-width="1.2" stroke="#000" stroke-miterlimit="10" fill="none"/><path d="M52.277 167.195l-9.13 7.114" stroke-width="1.2" stroke="#f00" stroke-miterlimit="10" fill="none"/><path d="M64.75 164.38l-9.13 7.112" stroke-width="1.2" stroke="#000" stroke-miterlimit="10" fill="none"/><path d="M55.62 171.492l-9.124 7.11" stroke-width="1.2" stroke="#f00" stroke-miterlimit="10" fill="none"/><path d="M63.074 162.23l-3.19-22.917" stroke-width="1.2" stroke="#000" stroke-miterlimit="10" fill="none"/><path d="M36.824 170.953h8v11h-8zm0 0" fill="#fff"/><use xlink:href="#b" x="36.824" y="179.616" fill="#f00"/><path d="M59.883 139.313l18.254-14.223M58.363 133.598l14.602-11.38M38.44 130.617l21.443 8.696M78.137 125.09l-3.192-22.918M74.945 102.172l-10.718-4.348" stroke-width="1.2" stroke="#000" stroke-miterlimit="10" fill="none"/><path d="M64.227 97.824l-10.723-4.347" stroke-width="1.2" stroke="#00f" stroke-miterlimit="10" fill="none"/><path d="M70.758 106.348l-8.578-3.48" stroke-width="1.2" stroke="#000" stroke-miterlimit="10" fill="none"/><path d="M62.18 102.867l-8.578-3.476M53.504 93.477l-9.13 7.11" stroke-width="1.2" stroke="#00f" stroke-miterlimit="10" fill="none"/><path d="M44.375 100.586L35.25 107.7" stroke-width="1.2" stroke="#000" stroke-miterlimit="10" fill="none"/><path d="M50.504 87.977h7v11h-7zm0 0" fill="#fff"/><use xlink:href="#a" x="50.504" y="96.64" fill="#00f"/><path d="M35.25 107.7l3.19 22.917M40.96 109.238l2.556 18.336M145.66 174.098l10.723 4.347" stroke-width="1.2" stroke="#000" stroke-miterlimit="10" fill="none"/><path d="M156.383 178.445l10.72 4.348M167.102 182.793l1.597 11.46" stroke-width="1.2" stroke="#00f" stroke-miterlimit="10" fill="none"/><path d="M168.7 194.254l1.593 11.457" stroke-width="1.2" stroke="#000" stroke-miterlimit="10" fill="none"/><path d="M167.102 182.793l9.128-7.11" stroke-width="1.2" stroke="#00f" stroke-miterlimit="10" fill="none"/><path d="M176.23 175.684l9.125-7.114" stroke-width="1.2" stroke="#000" stroke-miterlimit="10" fill="none"/><path d="M164.102 177.293h7v11h-7zm0 0" fill="#fff"/><use xlink:href="#a" x="164.102" y="185.956" fill="#00f"/><path d="M188.055 168.195l-1.598-11.46" stroke-width="1.2" stroke="#000" stroke-miterlimit="10" fill="none"/><path d="M186.457 156.734l-1.594-11.457" stroke-width="1.2" stroke="#f00" stroke-miterlimit="10" fill="none"/><path d="M182.66 168.945l-1.594-11.457" stroke-width="1.2" stroke="#000" stroke-miterlimit="10" fill="none"/><path d="M181.066 157.488l-1.597-11.46" stroke-width="1.2" stroke="#f00" stroke-miterlimit="10" fill="none"/><path d="M185.355 168.57l10.723 4.348" stroke-width="1.2" stroke="#000" stroke-miterlimit="10" fill="none"/><path d="M196.078 172.918l10.723 4.348" stroke-width="1.2" stroke="#00f" stroke-miterlimit="10" fill="none"/><path d="M178.164 140.152h8v11h-8zm0 0" fill="#fff"/><use xlink:href="#b" x="178.164" y="148.815" fill="#f00"/><path d="M206.8 177.266l9.126-7.11" stroke-width="1.2" stroke="#00f" stroke-miterlimit="10" fill="none"/><path d="M215.926 170.156l9.13-7.113" stroke-width="1.2" stroke="#000" stroke-miterlimit="10" fill="none"/><path d="M199.8 171.766h14v11h-14zm0 0" fill="#fff"/><g fill="#00f"><use xlink:href="#a" x="199.801" y="180.429"/><use xlink:href="#c" x="206.778" y="180.429"/></g><path d="M225.055 163.043l21.44 8.7M229.242 158.867l17.156 6.957M221.863 140.125l3.192 22.918M246.496 171.742l18.254-14.222M264.75 157.52l-3.19-22.922M259.04 155.977l-2.556-18.336M261.56 134.598l-21.443-8.696M240.117 125.902l-18.254 14.223M241.637 131.62l-14.602 11.376M240.117 125.902l-3.19-22.918M236.926 102.984l-1.598-11.46" stroke-width="1.2" stroke="#000" stroke-miterlimit="10" fill="none"/><path d="M235.328 91.523l-1.594-11.457" stroke-width="1.2" stroke="#00f" stroke-miterlimit="10" fill="none"/><path d="M242 99.94l-1.277-9.167" stroke-width="1.2" stroke="#000" stroke-miterlimit="10" fill="none"/><path d="M240.723 90.773l-1.278-9.168" stroke-width="1.2" stroke="#00f" stroke-miterlimit="10" fill="none"/><path d="M231.21 101.44l-1.273-9.167" stroke-width="1.2" stroke="#000" stroke-miterlimit="10" fill="none"/><path d="M229.938 92.273l-1.278-9.168" stroke-width="1.2" stroke="#00f" stroke-miterlimit="10" fill="none"/><path d="M230.734 74.566h7v11h-7zm0 0" fill="#fff"/><use xlink:href="#a" x="230.734" y="83.229" fill="#00f"/></g></svg>
